X: 39
T: No_45_Cheyenne_Sun-Dance_Song_(a).krn
N: Derived from No_45_Cheyenne_Sun-Dance_Song_(a).krn
%%abc-version 2.0
%%abcx-abcm2ps-target-version 5.9.1 (29 Sep 2008)
%%abc-creator hum2abc beta
%%abcx-conversion-date 2019/03/15 08:27:55
%%humdrum-veritas 3497018942
%%humdrum-veritas-data 1238692356
%%linebreak <none>
%%barnumbers 0
L: 1/8
M: 2/4
K: D clef=bass
[K:clef=bass][M:2/4]D2D2 | 
[M:3/4]D z/ A,/ A,A,/^G,/ A, z | 
[M:2/4]B,/A,3/A,2 | 
[M:3/4]A, z/ A,/ A,A,/^G,/ A, z | 
[M:2/4]B,/A,3/A,2 | 
[M:3/4]A, z/ F,/ E,G,/F,/ D, z | 
F,F, D,F,/E,/ D, z | 
[M:2/4]A,/A,3/A,2 | 
[M:3/4]A, z/ A,/ A,A,/^G,/ A, z | 
[M:2/4]B,3/A,/A,2 | 
[M:3/4]A, z/ F,/ E,G,/F,/ D, z | 
F,F, D,F,/E,/ D, z |]  



